svg/in-css/icons/waiting.svg

<svg xmlns="http://www.w3.org/2000/svg" viewBox="0 0 19 19"><style>*{fill:#fff}</style><path d="M15.22 3.17h1.33V1.26H2.45v1.91h1.33a8 8 0 002.87 6.24 8.1 8.1 0 00-2.88 6.42H2.45v1.91h14.1v-1.91h-1.32a8.13 8.13 0 00-2.88-6.42 8.07 8.07 0 002.87-6.24zm-4.7 6.94c1.82.43 3.19 2.87 3.28 5.72h-.21a4.53 4.53 0 00-4.09-3.3 4.51 4.51 0 00-4.08 3.3H5.2c.09-2.85 1.46-5.29 3.28-5.72a.73.73 0 00.52-.7.71.71 0 00-.55-.69C6.7 8.29 5.35 6 5.21 3.17h8.57C13.65 6 12.3 8.29 10.52 8.72a.71.71 0 00-.55.69.73.73 0 00.55.7z"/></svg>

<svg xmlns="http://www.w3.org/2000/svg" viewBox="0 0 19 19"><title>waiting</title><style>*{fill:#fff;}</style><path d="M15.22,3.17h1.33V1.26H2.45V3.17H3.78A8,8,0,0,0,6.65,9.41a8.1,8.1,0,0,0-2.88,6.42H2.45v1.91h14.1V15.83H15.23a8.13,8.13,0,0,0-2.88-6.42A8.07,8.07,0,0,0,15.22,3.17Zm-4.7,6.94c1.82.43,3.19,2.87,3.28,5.72h-.21a4.53,4.53,0,0,0-4.09-3.3,4.51,4.51,0,0,0-4.08,3.3H5.2c.09-2.85,1.46-5.29,3.28-5.72A.73.73,0,0,0,9,9.41a.71.71,0,0,0-.55-.69C6.7,8.29,5.35,6,5.21,3.17h8.57C13.65,6,12.3,8.29,10.52,8.72a.71.71,0,0,0-.55.69A.73.73,0,0,0,10.52,10.11Z"/></svg>
